packages/assets/static/images/icons/link-break.svg

<svg width="24" height="24" viewBox="0 0 24 24" xmlns="http://www.w3.org/2000/svg">
<path d="M18.6214 5.37844C18.0598 4.81694 17.2984 4.50103 16.5043 4.49998C15.7101 4.49892 14.9479 4.81281 14.3848 5.37281L13.2926 6.5175C13.1529 6.64806 12.9687 6.72034 12.7775 6.71956C12.5863 6.71879 12.4026 6.64502 12.264 6.51334C12.1253 6.38166 12.0422 6.20201 12.0317 6.0111C12.0211 5.8202 12.0838 5.63245 12.207 5.48625L13.3058 4.33406C13.3096 4.32977 13.3136 4.3257 13.3179 4.32187C14.1642 3.48931 15.3051 3.02487 16.4922 3.0297C17.6793 3.03453 18.8165 3.50826 19.6559 4.34768C20.4953 5.18711 20.969 6.32422 20.9739 7.51134C20.9787 8.69846 20.5143 9.83939 19.6817 10.6856C19.6779 10.6899 19.6738 10.694 19.6695 10.6978L18.5173 11.7966C18.3711 11.9198 18.1834 11.9825 17.9925 11.9719C17.8016 11.9613 17.6219 11.8782 17.4902 11.7396C17.3585 11.601 17.2848 11.4173 17.284 11.2261C17.2832 11.0349 17.3555 10.8506 17.4861 10.7109L18.6308 9.61875C19.1914 9.05499 19.5053 8.29173 19.5036 7.49665C19.5018 6.70157 19.1845 5.93971 18.6214 5.37844ZM10.707 17.4825L9.61482 18.6272C9.04949 19.1762 8.29084 19.4808 7.5028 19.475C6.71477 19.4692 5.96065 19.1536 5.40341 18.5964C4.84617 18.0392 4.53057 17.285 4.52481 16.497C4.51905 15.709 4.82359 14.9503 5.37263 14.385L6.51732 13.2928C6.64787 13.1531 6.72015 12.9689 6.71938 12.7777C6.71861 12.5865 6.64484 12.4028 6.51316 12.2642C6.38148 12.1255 6.20182 12.0424 6.01092 12.0318C5.82001 12.0213 5.63227 12.084 5.48607 12.2072L4.33013 13.3059C4.32584 13.3098 4.32177 13.3138 4.31794 13.3181C3.48538 14.1644 3.02093 15.3053 3.02577 16.4924C3.0306 17.6795 3.50432 18.8166 4.34375 19.6561C5.18317 20.4955 6.32029 20.9692 7.50741 20.974C8.69452 20.9789 9.83546 20.5144 10.6817 19.6819C10.686 19.6781 10.6901 19.674 10.6939 19.6697L11.7926 18.5175C11.8673 18.4477 11.927 18.3633 11.9679 18.2696C12.0088 18.1759 12.0301 18.0748 12.0305 17.9726C12.0309 17.8704 12.0104 17.7691 11.9703 17.6751C11.9301 17.581 11.8712 17.4962 11.797 17.4258C11.7229 17.3554 11.6352 17.3009 11.5392 17.2656C11.4432 17.2303 11.3411 17.2151 11.239 17.2207C11.1369 17.2264 11.037 17.2529 10.9456 17.2985C10.8541 17.3442 10.7729 17.4081 10.707 17.4862V17.4825ZM20.2498 14.25H17.9998C17.8009 14.25 17.6101 14.329 17.4695 14.4697C17.3288 14.6103 17.2498 14.8011 17.2498 15C17.2498 15.1989 17.3288 15.3897 17.4695 15.5303C17.6101 15.671 17.8009 15.75 17.9998 15.75H20.2498C20.4487 15.75 20.6395 15.671 20.7801 15.5303C20.9208 15.3897 20.9998 15.1989 20.9998 15C20.9998 14.8011 20.9208 14.6103 20.7801 14.4697C20.6395 14.329 20.4487 14.25 20.2498 14.25ZM3.74982 9.75H5.99982C6.19873 9.75 6.38949 9.67098 6.53015 9.53033C6.6708 9.38968 6.74982 9.19891 6.74982 9C6.74982 8.80109 6.6708 8.61032 6.53015 8.46967C6.38949 8.32902 6.19873 8.25 5.99982 8.25H3.74982C3.5509 8.25 3.36014 8.32902 3.21949 8.46967C3.07883 8.61032 2.99982 8.80109 2.99982 9C2.99982 9.19891 3.07883 9.38968 3.21949 9.53033C3.36014 9.67098 3.5509 9.75 3.74982 9.75ZM14.9998 17.25C14.8009 17.25 14.6101 17.329 14.4695 17.4697C14.3288 17.6103 14.2498 17.8011 14.2498 18V20.25C14.2498 20.4489 14.3288 20.6397 14.4695 20.7803C14.6101 20.921 14.8009 21 14.9998 21C15.1987 21 15.3895 20.921 15.5301 20.7803C15.6708 20.6397 15.7498 20.4489 15.7498 20.25V18C15.7498 17.8011 15.6708 17.6103 15.5301 17.4697C15.3895 17.329 15.1987 17.25 14.9998 17.25ZM8.99982 6.75C9.19873 6.75 9.38949 6.67098 9.53015 6.53033C9.6708 6.38968 9.74982 6.19891 9.74982 6V3.75C9.74982 3.55109 9.6708 3.36032 9.53015 3.21967C9.38949 3.07902 9.19873 3 8.99982 3C8.8009 3 8.61014 3.07902 8.46949 3.21967C8.32883 3.36032 8.24982 3.55109 8.24982 3.75V6C8.24982 6.19891 8.32883 6.38968 8.46949 6.53033C8.61014 6.67098 8.8009 6.75 8.99982 6.75Z"/>
</svg>

<svg viewBox="0 0 24 24" xmlns="http://www.w3.org/2000/svg" aria-hidden="true" fill="currentColor"><path d="M18.621 5.378a3 3 0 0 0-4.236-.005l-1.092 1.144a.75.75 0 0 1-1.086-1.03l1.099-1.153.012-.012a4.5 4.5 0 0 1 6.352 6.376l-1.153 1.099a.75.75 0 0 1-1.03-1.086l1.144-1.092a3 3 0 0 0-.01-4.24m-7.914 12.105-1.092 1.144a3 3 0 0 1-4.242-4.242l1.144-1.092a.75.75 0 0 0-1.03-1.086L4.33 13.306l-.012.012a4.5 4.5 0 0 0 6.376 6.352l1.099-1.153a.75.75 0 1 0-1.086-1.03zm9.543-3.233H18a.75.75 0 1 0 0 1.5h2.25a.75.75 0 1 0 0-1.5m-16.5-4.5H6a.75.75 0 0 0 0-1.5H3.75a.75.75 0 1 0 0 1.5M15 17.25a.75.75 0 0 0-.75.75v2.25a.75.75 0 1 0 1.5 0V18a.75.75 0 0 0-.75-.75M9 6.75A.75.75 0 0 0 9.75 6V3.75a.75.75 0 0 0-1.5 0V6a.75.75 0 0 0 .75.75"/></svg>
